icons/open.svg

<svg xmlns="http://www.w3.org/2000/svg" fill="none" viewBox="0 0 1267 1267"><rect width="1267" height="1267" fill="#FF3E00" rx="633.5"/><path fill="#000" d="M1020.53 538.839h-3.1c-6.97 0-12.63-5.69-12.63-12.688v-27.298c0-4.62-3.74-8.38-8.336-8.38h-3.104c-6.964 0-12.626-5.69-12.626-12.688v-27.298c0-4.62-3.741-8.38-8.338-8.38h-3.094c-6.964 0-12.626-5.69-12.626-12.688v-3.12c0-4.62-3.741-8.379-8.338-8.379h-3.104c-6.964 0-12.626-5.691-12.626-12.689v-3.119c0-4.62-3.741-8.38-8.338-8.38h-3.104c-6.963 0-12.625-5.69-12.625-12.688v-3.111c0-4.62-3.741-8.379-8.338-8.379h-3.095c-6.964 0-12.626-5.691-12.626-12.689v-3.119c0-4.62-3.741-8.38-8.338-8.38h-27.162c-6.964 0-12.626-5.69-12.626-12.688v-3.12c0-4.62-3.741-8.38-8.338-8.38h-51.23c-6.963 0-12.625-5.69-12.625-12.688v-3.11c0-4.62-3.741-8.38-8.338-8.38h-75.298c-4.597 0-8.338 3.76-8.338 8.38v3.11c0 6.998-5.662 12.688-12.625 12.688h-51.231c-6.963 0-12.625-5.69-12.625-12.688v-3.11c0-4.62-3.741-8.38-8.338-8.38h-75.298c-4.597 0-8.338 3.76-8.338 8.38v3.11c0 6.998-5.662 12.688-12.625 12.688h-51.23c-4.597 0-8.338 3.76-8.338 8.38v3.12c0 6.998-5.662 12.688-12.626 12.688h-27.172c-4.596 0-8.338 3.76-8.338 8.38v3.119c0 6.998-5.661 12.689-12.625 12.689h-3.104c-4.597 0-8.338 3.759-8.338 8.379v3.111c0 6.998-5.662 12.688-12.626 12.688h-3.104c-4.597 0-8.338 3.76-8.338 8.38v3.119c0 6.998-5.662 12.689-12.625 12.689h-3.104c-4.597 0-8.338 3.759-8.338 8.379v3.12c0 6.998-5.662 12.688-12.626 12.688h-3.104c-4.597 0-8.338 3.76-8.338 8.38v27.298c0 6.998-5.662 12.688-12.625 12.688h-3.104c-4.597 0-8.338 3.76-8.338 8.38v27.298c0 6.998-5.662 12.688-12.626 12.688h-3.104c-4.597 0-8.338 3.76-8.338 8.38v172.414c0 4.62 3.741 8.38 8.338 8.38h3.104c6.964 0 12.626 5.69 12.626 12.688v27.298c0 4.62 3.741 8.38 8.338 8.38h3.104c6.963 0 12.625 5.69 12.625 12.688v27.298c0 4.62 3.741 8.38 8.338 8.38h3.104c6.964 0 12.626 5.69 12.626 12.688v3.12c0 4.619 3.741 8.379 8.338 8.379h3.104c6.963 0 12.625 5.69 12.625 12.689v3.11c0 4.62 3.741 8.38 8.338 8.38h3.104c6.964 0 12.626 5.69 12.626 12.688v3.12c0 4.619 3.741 8.379 8.338 8.379h3.104c6.964 0 12.625 5.69 12.625 12.689v3.119c0 4.62 3.742 8.38 8.338 8.38h27.172c6.964 0 12.626 5.69 12.626 12.688v3.111c0 4.619 3.741 8.379 8.338 8.379h51.23c6.963 0 12.625 5.69 12.625 12.689v3.119c0 4.62 3.741 8.38 8.338 8.38h75.298c4.597 0 8.338-3.76 8.338-8.38v-3.119c0-6.999 5.662-12.689 12.625-12.689h51.231c6.963 0 12.625 5.69 12.625 12.689v3.119c0 4.62 3.741 8.38 8.338 8.38h75.298c4.597 0 8.338-3.76 8.338-8.38v-3.119c0-6.999 5.662-12.689 12.625-12.689h51.23c4.597 0 8.338-3.76 8.338-8.379v-3.111c0-6.998 5.662-12.688 12.626-12.688h27.162c4.597 0 8.338-3.76 8.338-8.38v-3.119c0-6.999 5.662-12.689 12.626-12.689h3.095c4.597 0 8.338-3.76 8.338-8.379v-3.12c0-6.998 5.662-12.688 12.625-12.688h3.104c4.597 0 8.338-3.76 8.338-8.38v-3.11c0-6.999 5.662-12.689 12.626-12.689h3.104c4.597 0 8.338-3.76 8.338-8.379v-3.12c0-6.998 5.662-12.688 12.626-12.688h3.094c4.597 0 8.338-3.76 8.338-8.38v-27.298c0-6.998 5.662-12.688 12.626-12.688h3.104c4.596 0 8.336-3.76 8.336-8.38v-27.298c0-6.998 5.66-12.688 12.63-12.688h3.1c4.6 0 8.34-3.76 8.34-8.38V547.219c0-4.62-3.74-8.38-8.34-8.38M551.851 913.115c0 6.999-5.662 12.689-12.625 12.689h-75.298c-6.964 0-12.625-5.69-12.625-12.689v-3.119c0-4.62-3.742-8.38-8.339-8.38h-3.104c-6.963 0-12.625-5.69-12.625-12.688v-3.12c0-4.62-3.741-8.379-8.338-8.379h-3.104c-6.964 0-12.626-5.691-12.626-12.689v-3.11c0-4.62-3.741-8.38-8.338-8.38h-3.104c-6.963 0-12.625-5.69-12.625-12.688v-27.298c0-4.62-3.741-8.38-8.338-8.38h-3.104c-6.964 0-12.626-5.69-12.626-12.688V740.71c0-4.62-3.741-8.379-8.338-8.379h-3.104c-6.963 0-12.625-5.69-12.625-12.689V547.228c0-6.998 5.662-12.688 12.625-12.688h3.104c4.597 0 8.338-3.76 8.338-8.38v-51.486c0-6.998 5.662-12.688 12.626-12.688h3.104c4.597 0 8.338-3.76 8.338-8.38v-27.298c0-6.998 5.662-12.688 12.625-12.688h3.104c4.597 0 8.338-3.76 8.338-8.38v-3.119c0-6.998 5.662-12.689 12.626-12.689h3.104c4.597 0 8.338-3.759 8.338-8.379v-3.111c0-6.998 5.662-12.688 12.625-12.688h3.104c4.597 0 8.339-3.76 8.339-8.38v-3.119c0-6.998 5.661-12.689 12.625-12.689h75.298c6.963 0 12.625 5.691 12.625 12.689v3.119c0 6.999-5.662 12.689-12.625 12.689h-3.104c-4.597 0-8.338 3.76-8.338 8.379v3.111c0 6.998-5.662 12.688-12.626 12.688h-3.104c-4.597 0-8.338 3.76-8.338 8.38v3.119c0 6.999-5.662 12.689-12.626 12.689h-3.104c-4.596 0-8.338 3.76-8.338 8.379v3.12c0 6.998-5.662 12.688-12.625 12.688h-3.104c-4.597 0-8.338 3.76-8.338 8.38v27.298c0 6.998-5.662 12.688-12.626 12.688h-3.104c-4.597 0-8.338 3.76-8.338 8.38v27.298c0 6.998-5.662 12.688-12.625 12.688h-3.104c-4.597 0-8.338 3.76-8.338 8.38v172.414c0 4.62 3.741 8.38 8.338 8.38h3.104c6.963 0 12.625 5.69 12.625 12.688v27.298c0 4.62 3.741 8.38 8.338 8.38h3.104c6.964 0 12.626 5.69 12.626 12.688v27.298c0 4.62 3.741 8.38 8.338 8.38h3.104c6.963 0 12.625 5.69 12.625 12.688v3.12c0 4.62 3.742 8.379 8.338 8.379h3.104c6.964 0 12.626 5.691 12.626 12.689v3.11c0 4.62 3.741 8.38 8.338 8.38h3.104c6.964 0 12.626 5.69 12.626 12.688v3.12c0 4.62 3.741 8.379 8.338 8.379h3.104c6.963 0 12.625 5.691 12.625 12.689zm152.735-59.874c-4.597 0-8.339 3.76-8.339 8.38v3.11c0 6.998-5.661 12.688-12.625 12.688h-3.104c-4.597 0-8.338 3.76-8.338 8.38v3.12c0 6.998-5.662 12.688-12.626 12.688h-3.104c-4.597 0-8.338 3.76-8.338 8.38v3.119c0 6.998-5.662 12.689-12.625 12.689h-3.095c-6.964 0-12.626-5.691-12.626-12.689v-3.119c0-4.62-3.741-8.38-8.338-8.38h-3.104c-6.963 0-12.625-5.69-12.625-12.688v-3.12c0-4.62-3.741-8.38-8.338-8.38h-3.104c-6.964 0-12.626-5.69-12.626-12.688v-3.11c0-4.62-3.741-8.38-8.338-8.38h-3.104c-6.963 0-12.625-5.69-12.625-12.688v-27.298c0-4.62-3.741-8.38-8.338-8.38h-3.104c-6.964 0-12.626-5.69-12.626-12.688v-51.486c0-4.62-3.741-8.38-8.338-8.38h-3.104c-6.964 0-12.625-5.69-12.625-12.688V547.219c0-6.998 5.661-12.689 12.625-12.689h3.104c4.597 0 8.338-3.759 8.338-8.379v-51.486c0-6.998 5.662-12.688 12.626-12.688h3.104c4.597 0 8.338-3.76 8.338-8.38v-27.298c0-6.998 5.662-12.688 12.625-12.688h3.104c4.597 0 8.338-3.76 8.338-8.38v-3.119c0-6.999 5.662-12.689 12.626-12.689h3.104c4.597 0 8.338-3.76 8.338-8.379v-3.111c0-6.998 5.662-12.688 12.625-12.688h3.104c4.597 0 8.338-3.76 8.338-8.38v-3.119c0-6.999 5.662-12.689 12.626-12.689h3.095c6.963 0 12.625 5.69 12.625 12.689v3.119c0 4.62 3.741 8.38 8.338 8.38h3.104c6.964 0 12.626 5.69 12.626 12.688v3.111c0 4.619 3.741 8.379 8.338 8.379h3.104c6.964 0 12.625 5.69 12.625 12.689v3.119c0 4.62 3.742 8.38 8.339 8.38h3.094c6.964 0 12.626 5.69 12.626 12.688v27.298c0 4.62 3.741 8.38 8.338 8.38h3.104c6.964 0 12.625 5.69 12.625 12.688v51.486c0 4.62 3.742 8.379 8.339 8.379h3.104c6.963 0 12.625 5.691 12.625 12.689v172.414c0 6.998-5.662 12.688-12.625 12.688h-3.104c-4.597 0-8.339 3.76-8.339 8.38v51.486c0 6.998-5.661 12.688-12.625 12.688h-3.104c-4.597 0-8.338 3.76-8.338 8.38v27.298c0 6.998-5.662 12.688-12.626 12.688zm232.31-133.608c0 6.998-5.662 12.688-12.626 12.688h-3.104c-4.597 0-8.338 3.76-8.338 8.38v51.486c0 6.998-5.662 12.688-12.625 12.688h-3.095c-4.597 0-8.338 3.76-8.338 8.38v27.298c0 6.998-5.662 12.688-12.626 12.688h-3.104c-4.597 0-8.338 3.76-8.338 8.38v3.11c0 6.998-5.662 12.688-12.625 12.688h-3.104c-4.597 0-8.338 3.76-8.338 8.38v3.12c0 6.998-5.662 12.688-12.626 12.688h-3.095c-4.597 0-8.338 3.76-8.338 8.38v3.119c0 6.998-5.662 12.689-12.625 12.689h-75.298c-6.964 0-12.625-5.691-12.625-12.689v-3.119c0-6.999 5.661-12.689 12.625-12.689h3.104c4.597 0 8.338-3.76 8.338-8.379v-3.12c0-6.998 5.662-12.688 12.626-12.688h3.104c4.597 0 8.338-3.76 8.338-8.38v-3.11c0-6.999 5.662-12.689 12.625-12.689h3.104c4.597 0 8.338-3.76 8.338-8.379v-3.12c0-6.998 5.662-12.688 12.626-12.688h3.104c4.597 0 8.338-3.76 8.338-8.38v-27.298c0-6.998 5.662-12.688 12.625-12.688h3.095c4.597 0 8.338-3.76 8.338-8.38v-27.298c0-6.998 5.662-12.688 12.626-12.688h3.104c4.597 0 8.338-3.76 8.338-8.38V547.219c0-4.62-3.741-8.38-8.338-8.38h-3.104c-6.964 0-12.626-5.69-12.626-12.688v-27.298c0-4.62-3.741-8.38-8.338-8.38h-3.095c-6.963 0-12.625-5.69-12.625-12.688v-27.298c0-4.62-3.741-8.38-8.338-8.38h-3.104c-6.964 0-12.626-5.69-12.626-12.688v-3.12c0-4.62-3.741-8.379-8.338-8.379h-3.104c-6.963 0-12.625-5.691-12.625-12.689v-3.119c0-4.62-3.741-8.38-8.338-8.38h-3.104c-6.964 0-12.626-5.69-12.626-12.688v-3.111c0-4.62-3.741-8.379-8.338-8.379h-3.104c-6.964 0-12.625-5.691-12.625-12.689v-3.119c0-6.999 5.661-12.689 12.625-12.689h75.298c6.963 0 12.625 5.69 12.625 12.689v3.119c0 4.62 3.741 8.38 8.338 8.38h3.095c6.964 0 12.626 5.69 12.626 12.688v3.111c0 4.619 3.741 8.379 8.338 8.379h3.104c6.963 0 12.625 5.69 12.625 12.689v3.119c0 4.62 3.741 8.38 8.338 8.38h3.104c6.964 0 12.626 5.69 12.626 12.688v27.298c0 4.62 3.741 8.38 8.338 8.38h3.095c6.963 0 12.625 5.69 12.625 12.688v51.486c0 4.62 3.741 8.379 8.338 8.379h3.104c6.964 0 12.626 5.691 12.626 12.689z"/></svg>

<svg width="1267" height="1267" viewBox="0 0 1267 1267" fill="none" xmlns="http://www.w3.org/2000/svg">
<rect width="1267" height="1267" rx="633.5" fill="#FF3E00"/>
<path d="M1020.53 538.839H1017.43C1010.46 538.839 1004.8 533.149 1004.8 526.151V498.853C1004.8 494.233 1001.06 490.473 996.464 490.473H993.36C986.396 490.473 980.734 484.783 980.734 477.785V450.487C980.734 445.867 976.993 442.107 972.396 442.107H969.302C962.338 442.107 956.676 436.417 956.676 429.419V426.299C956.676 421.679 952.935 417.92 948.338 417.92H945.234C938.27 417.92 932.608 412.229 932.608 405.231V402.112C932.608 397.492 928.867 393.732 924.27 393.732H921.166C914.203 393.732 908.541 388.042 908.541 381.044V377.933C908.541 373.313 904.8 369.554 900.203 369.554H897.108C890.144 369.554 884.482 363.863 884.482 356.865V353.746C884.482 349.126 880.741 345.366 876.144 345.366H848.982C842.018 345.366 836.356 339.676 836.356 332.678V329.558C836.356 324.938 832.615 321.178 828.018 321.178H776.788C769.825 321.178 764.163 315.488 764.163 308.49V305.38C764.163 300.76 760.422 297 755.825 297H680.527C675.93 297 672.189 300.76 672.189 305.38V308.49C672.189 315.488 666.527 321.178 659.564 321.178H608.333C601.37 321.178 595.708 315.488 595.708 308.49V305.38C595.708 300.76 591.967 297 587.37 297H512.072C507.475 297 503.734 300.76 503.734 305.38V308.49C503.734 315.488 498.072 321.178 491.109 321.178H439.879C435.282 321.178 431.541 324.938 431.541 329.558V332.678C431.541 339.676 425.879 345.366 418.915 345.366H391.743C387.147 345.366 383.405 349.126 383.405 353.746V356.865C383.405 363.863 377.744 369.554 370.78 369.554H367.676C363.079 369.554 359.338 373.313 359.338 377.933V381.044C359.338 388.042 353.676 393.732 346.712 393.732H343.608C339.011 393.732 335.27 397.492 335.27 402.112V405.231C335.27 412.229 329.608 417.92 322.645 417.92H319.541C314.944 417.92 311.203 421.679 311.203 426.299V429.419C311.203 436.417 305.541 442.107 298.577 442.107H295.473C290.876 442.107 287.135 445.867 287.135 450.487V477.785C287.135 484.783 281.473 490.473 274.51 490.473H271.406C266.809 490.473 263.068 494.233 263.068 498.853V526.151C263.068 533.149 257.406 538.839 250.442 538.839H247.338C242.741 538.839 239 542.599 239 547.219V719.633C239 724.253 242.741 728.013 247.338 728.013H250.442C257.406 728.013 263.068 733.703 263.068 740.701V767.999C263.068 772.619 266.809 776.379 271.406 776.379H274.51C281.473 776.379 287.135 782.069 287.135 789.067V816.365C287.135 820.985 290.876 824.745 295.473 824.745H298.577C305.541 824.745 311.203 830.435 311.203 837.433V840.553C311.203 845.172 314.944 848.932 319.541 848.932H322.645C329.608 848.932 335.27 854.622 335.27 861.621V864.731C335.27 869.351 339.011 873.111 343.608 873.111H346.712C353.676 873.111 359.338 878.801 359.338 885.799V888.919C359.338 893.538 363.079 897.298 367.676 897.298H370.78C377.744 897.298 383.405 902.988 383.405 909.987V913.106C383.405 917.726 387.147 921.486 391.743 921.486H418.915C425.879 921.486 431.541 927.176 431.541 934.174V937.285C431.541 941.904 435.282 945.664 439.879 945.664H491.109C498.072 945.664 503.734 951.354 503.734 958.353V961.472C503.734 966.092 507.475 969.852 512.072 969.852H587.37C591.967 969.852 595.708 966.092 595.708 961.472V958.353C595.708 951.354 601.37 945.664 608.333 945.664H659.564C666.527 945.664 672.189 951.354 672.189 958.353V961.472C672.189 966.092 675.93 969.852 680.527 969.852H755.825C760.422 969.852 764.163 966.092 764.163 961.472V958.353C764.163 951.354 769.825 945.664 776.788 945.664H828.018C832.615 945.664 836.356 941.904 836.356 937.285V934.174C836.356 927.176 842.018 921.486 848.982 921.486H876.144C880.741 921.486 884.482 917.726 884.482 913.106V909.987C884.482 902.988 890.144 897.298 897.108 897.298H900.203C904.8 897.298 908.541 893.538 908.541 888.919V885.799C908.541 878.801 914.203 873.111 921.166 873.111H924.27C928.867 873.111 932.608 869.351 932.608 864.731V861.621C932.608 854.622 938.27 848.932 945.234 848.932H948.338C952.935 848.932 956.676 845.172 956.676 840.553V837.433C956.676 830.435 962.338 824.745 969.302 824.745H972.396C976.993 824.745 980.734 820.985 980.734 816.365V789.067C980.734 782.069 986.396 776.379 993.36 776.379H996.464C1001.06 776.379 1004.8 772.619 1004.8 767.999V740.701C1004.8 733.703 1010.46 728.013 1017.43 728.013H1020.53C1025.13 728.013 1028.87 724.253 1028.87 719.633V547.219C1028.87 542.599 1025.13 538.839 1020.53 538.839ZM551.851 913.115C551.851 920.114 546.189 925.804 539.226 925.804H463.928C456.964 925.804 451.303 920.114 451.303 913.115V909.996C451.303 905.376 447.561 901.616 442.964 901.616H439.86C432.897 901.616 427.235 895.926 427.235 888.928V885.808C427.235 881.188 423.494 877.429 418.897 877.429H415.793C408.829 877.429 403.167 871.738 403.167 864.74V861.63C403.167 857.01 399.426 853.25 394.829 853.25H391.725C384.762 853.25 379.1 847.56 379.1 840.562V813.264C379.1 808.644 375.359 804.884 370.762 804.884H367.658C360.694 804.884 355.032 799.194 355.032 792.196V740.71C355.032 736.09 351.291 732.331 346.694 732.331H343.59C336.627 732.331 330.965 726.641 330.965 719.642V547.228C330.965 540.23 336.627 534.54 343.59 534.54H346.694C351.291 534.54 355.032 530.78 355.032 526.16V474.674C355.032 467.676 360.694 461.986 367.658 461.986H370.762C375.359 461.986 379.1 458.226 379.1 453.606V426.308C379.1 419.31 384.762 413.62 391.725 413.62H394.829C399.426 413.62 403.167 409.86 403.167 405.24V402.121C403.167 395.123 408.829 389.432 415.793 389.432H418.897C423.494 389.432 427.235 385.673 427.235 381.053V377.942C427.235 370.944 432.897 365.254 439.86 365.254H442.964C447.561 365.254 451.303 361.494 451.303 356.874V353.755C451.303 346.757 456.964 341.066 463.928 341.066H539.226C546.189 341.066 551.851 346.757 551.851 353.755V356.874C551.851 363.873 546.189 369.563 539.226 369.563H536.122C531.525 369.563 527.784 373.323 527.784 377.942V381.053C527.784 388.051 522.122 393.741 515.158 393.741H512.054C507.457 393.741 503.716 397.501 503.716 402.121V405.24C503.716 412.239 498.054 417.929 491.09 417.929H487.986C483.39 417.929 479.648 421.689 479.648 426.308V429.428C479.648 436.426 473.986 442.116 467.023 442.116H463.919C459.322 442.116 455.581 445.876 455.581 450.496V477.794C455.581 484.792 449.919 490.482 442.955 490.482H439.851C435.254 490.482 431.513 494.242 431.513 498.862V526.16C431.513 533.158 425.851 538.848 418.888 538.848H415.784C411.187 538.848 407.446 542.608 407.446 547.228V719.642C407.446 724.262 411.187 728.022 415.784 728.022H418.888C425.851 728.022 431.513 733.712 431.513 740.71V768.008C431.513 772.628 435.254 776.388 439.851 776.388H442.955C449.919 776.388 455.581 782.078 455.581 789.076V816.374C455.581 820.994 459.322 824.754 463.919 824.754H467.023C473.986 824.754 479.648 830.444 479.648 837.442V840.562C479.648 845.182 483.39 848.941 487.986 848.941H491.09C498.054 848.941 503.716 854.632 503.716 861.63V864.74C503.716 869.36 507.457 873.12 512.054 873.12H515.158C522.122 873.12 527.784 878.81 527.784 885.808V888.928C527.784 893.548 531.525 897.307 536.122 897.307H539.226C546.189 897.307 551.851 902.998 551.851 909.996V913.115ZM704.586 853.241C699.989 853.241 696.247 857.001 696.247 861.621V864.731C696.247 871.729 690.586 877.419 683.622 877.419H680.518C675.921 877.419 672.18 881.179 672.18 885.799V888.919C672.18 895.917 666.518 901.607 659.554 901.607H656.45C651.853 901.607 648.112 905.367 648.112 909.987V913.106C648.112 920.104 642.45 925.795 635.487 925.795H632.392C625.428 925.795 619.766 920.104 619.766 913.106V909.987C619.766 905.367 616.025 901.607 611.428 901.607H608.324C601.361 901.607 595.699 895.917 595.699 888.919V885.799C595.699 881.179 591.958 877.419 587.361 877.419H584.257C577.293 877.419 571.631 871.729 571.631 864.731V861.621C571.631 857.001 567.89 853.241 563.293 853.241H560.189C553.226 853.241 547.564 847.551 547.564 840.553V813.255C547.564 808.635 543.823 804.875 539.226 804.875H536.122C529.158 804.875 523.496 799.185 523.496 792.187V740.701C523.496 736.081 519.755 732.321 515.158 732.321H512.054C505.09 732.321 499.429 726.631 499.429 719.633V547.219C499.429 540.221 505.09 534.53 512.054 534.53H515.158C519.755 534.53 523.496 530.771 523.496 526.151V474.665C523.496 467.667 529.158 461.977 536.122 461.977H539.226C543.823 461.977 547.564 458.217 547.564 453.597V426.299C547.564 419.301 553.226 413.611 560.189 413.611H563.293C567.89 413.611 571.631 409.851 571.631 405.231V402.112C571.631 395.113 577.293 389.423 584.257 389.423H587.361C591.958 389.423 595.699 385.663 595.699 381.044V377.933C595.699 370.935 601.361 365.245 608.324 365.245H611.428C616.025 365.245 619.766 361.485 619.766 356.865V353.746C619.766 346.747 625.428 341.057 632.392 341.057H635.487C642.45 341.057 648.112 346.747 648.112 353.746V356.865C648.112 361.485 651.853 365.245 656.45 365.245H659.554C666.518 365.245 672.18 370.935 672.18 377.933V381.044C672.18 385.663 675.921 389.423 680.518 389.423H683.622C690.586 389.423 696.247 395.113 696.247 402.112V405.231C696.247 409.851 699.989 413.611 704.586 413.611H707.68C714.644 413.611 720.306 419.301 720.306 426.299V453.597C720.306 458.217 724.047 461.977 728.644 461.977H731.748C738.712 461.977 744.373 467.667 744.373 474.665V526.151C744.373 530.771 748.115 534.53 752.712 534.53H755.816C762.779 534.53 768.441 540.221 768.441 547.219V719.633C768.441 726.631 762.779 732.321 755.816 732.321H752.712C748.115 732.321 744.373 736.081 744.373 740.701V792.187C744.373 799.185 738.712 804.875 731.748 804.875H728.644C724.047 804.875 720.306 808.635 720.306 813.255V840.553C720.306 847.551 714.644 853.241 707.68 853.241H704.586ZM936.896 719.633C936.896 726.631 931.234 732.321 924.27 732.321H921.166C916.569 732.321 912.828 736.081 912.828 740.701V792.187C912.828 799.185 907.166 804.875 900.203 804.875H897.108C892.511 804.875 888.77 808.635 888.77 813.255V840.553C888.77 847.551 883.108 853.241 876.144 853.241H873.04C868.443 853.241 864.702 857.001 864.702 861.621V864.731C864.702 871.729 859.04 877.419 852.077 877.419H848.973C844.376 877.419 840.635 881.179 840.635 885.799V888.919C840.635 895.917 834.973 901.607 828.009 901.607H824.914C820.317 901.607 816.576 905.367 816.576 909.987V913.106C816.576 920.104 810.914 925.795 803.951 925.795H728.653C721.689 925.795 716.028 920.104 716.028 913.106V909.987C716.028 902.988 721.689 897.298 728.653 897.298H731.757C736.354 897.298 740.095 893.538 740.095 888.919V885.799C740.095 878.801 745.757 873.111 752.721 873.111H755.825C760.422 873.111 764.163 869.351 764.163 864.731V861.621C764.163 854.622 769.825 848.932 776.788 848.932H779.892C784.489 848.932 788.23 845.172 788.23 840.553V837.433C788.23 830.435 793.892 824.745 800.856 824.745H803.96C808.557 824.745 812.298 820.985 812.298 816.365V789.067C812.298 782.069 817.96 776.379 824.923 776.379H828.018C832.615 776.379 836.356 772.619 836.356 767.999V740.701C836.356 733.703 842.018 728.013 848.982 728.013H852.086C856.683 728.013 860.424 724.253 860.424 719.633V547.219C860.424 542.599 856.683 538.839 852.086 538.839H848.982C842.018 538.839 836.356 533.149 836.356 526.151V498.853C836.356 494.233 832.615 490.473 828.018 490.473H824.923C817.96 490.473 812.298 484.783 812.298 477.785V450.487C812.298 445.867 808.557 442.107 803.96 442.107H800.856C793.892 442.107 788.23 436.417 788.23 429.419V426.299C788.23 421.679 784.489 417.92 779.892 417.92H776.788C769.825 417.92 764.163 412.229 764.163 405.231V402.112C764.163 397.492 760.422 393.732 755.825 393.732H752.721C745.757 393.732 740.095 388.042 740.095 381.044V377.933C740.095 373.313 736.354 369.554 731.757 369.554H728.653C721.689 369.554 716.028 363.863 716.028 356.865V353.746C716.028 346.747 721.689 341.057 728.653 341.057H803.951C810.914 341.057 816.576 346.747 816.576 353.746V356.865C816.576 361.485 820.317 365.245 824.914 365.245H828.009C834.973 365.245 840.635 370.935 840.635 377.933V381.044C840.635 385.663 844.376 389.423 848.973 389.423H852.077C859.04 389.423 864.702 395.113 864.702 402.112V405.231C864.702 409.851 868.443 413.611 873.04 413.611H876.144C883.108 413.611 888.77 419.301 888.77 426.299V453.597C888.77 458.217 892.511 461.977 897.108 461.977H900.203C907.166 461.977 912.828 467.667 912.828 474.665V526.151C912.828 530.771 916.569 534.53 921.166 534.53H924.27C931.234 534.53 936.896 540.221 936.896 547.219V719.633Z" fill="black"/>
</svg>
